components/Common/Svg/svgs/customerEngagement.svg

<svg
  width="90"
  height="90"
  viewBox="0 0 90 90"
  fill="none"
  xmlns="http://www.w3.org/2000/svg"
>
  <circle
    opacity="0.5"
    cx="45"
    cy="45"
    r="45"
    fill="#FFE603"
  ></circle>
  <path
    d="M35.6768 29.0061C33.4028 28.9998 31.5508 30.8518 31.5508 33.1258C31.5508 35.4061 33.4028 37.2581 35.6768 37.2581C37.9508 37.2581 39.8028 35.4061 39.8028 33.1321C39.8028 30.8581 37.9508 29.0061 35.6768 29.0061ZM35.6768 36.2313C33.9697 36.2313 32.5839 34.8392 32.5839 33.1258C32.5839 31.4124 33.9697 30.0329 35.6768 30.0329C37.3839 30.0329 38.776 31.425 38.776 33.1321C38.776 34.8392 37.3839 36.2313 35.6768 36.2313Z"
    fill="black"
  ></path>
  <path
    d="M54.2627 29C51.9887 29 50.1367 30.852 50.1367 33.126C50.1304 35.4063 51.9824 37.2583 54.2627 37.2583C56.5367 37.2583 58.3887 35.4063 58.3887 33.1323C58.3887 30.852 56.5367 29 54.2627 29ZM54.2627 36.2315C52.5556 36.2315 51.1635 34.8394 51.1635 33.1323C51.1635 31.4252 52.5556 30.0331 54.2627 30.0331C55.9698 30.0331 57.3619 31.4252 57.3619 33.1323C57.3619 34.8394 55.9698 36.2315 54.2627 36.2315Z"
    fill="black"
  ></path>
  <path
    d="M57.3512 38.8079H49.9874C48.9166 38.8079 47.9717 39.4504 47.5874 40.4457L44.967 47.1417L42.3465 40.452C41.9559 39.4567 41.011 38.8142 39.9402 38.8142H37.6095L35.6756 42.3039L33.7417 38.8142H32.5827C31.1591 38.8142 30 39.9732 30 41.3968V51.7213H32.0661V61H39.2914V43.3748L42.5544 51.7087H45.6536H46.7622H47.3922L50.6552 43.3748V61H57.8804V51.7087H59.9465V41.3842C59.9339 39.9669 58.7749 38.8079 57.3512 38.8079ZM43.2536 50.6693V50.6756L40.2488 42.9968C40.0662 42.5307 39.5937 42.2661 39.0961 42.3606C38.5984 42.4551 38.2583 42.8709 38.2583 43.3748V59.967H36.1921V52.2252H35.1591V59.967H33.0929V50.6756H31.0331V41.3842C31.0331 40.5276 31.726 39.8346 32.5827 39.8346H33.137L35.6819 44.4205L38.2268 39.8346H39.9528C40.5953 39.8346 41.1622 40.2189 41.3953 40.8173L45.2504 50.6693H43.2536ZM58.9008 50.6756H56.8347V59.967H54.7686V52.2252H53.7355V59.967H51.6693V43.3748C51.6693 42.8709 51.3229 42.4551 50.8315 42.3606C50.3339 42.2661 49.8615 42.5307 49.6788 42.9968L46.674 50.6756H46.3528L45.5213 48.5528L48.5449 40.8173C48.778 40.2189 49.3449 39.8346 49.9874 39.8346H57.3512C58.2079 39.8346 58.9008 40.5276 58.9008 41.3842V50.6756Z"
    fill="black"
  ></path>
  <path
    d="M54.7792 40.874H53.7461V41.9071H54.7792V40.874Z"
    fill="black"
  ></path>
  <path
    d="M54.7792 42.9338H53.7461V43.9669H54.7792V42.9338Z"
    fill="black"
  ></path>
  <path
    d="M54.7792 45H53.7461V46.0331H54.7792V45Z"
    fill="black"
  ></path>
</svg>

<svg width="90" height="90" viewBox="0 0 90 90" fill="none" xmlns="http://www.w3.org/2000/svg"><circle opacity=".5" cx="45" cy="45" r="45" fill="#FFE603"/><path d="M35.677 29.006a4.123 4.123 0 0 0-4.126 4.12 4.133 4.133 0 0 0 4.126 4.132 4.132 4.132 0 0 0 4.126-4.126 4.132 4.132 0 0 0-4.126-4.126Zm0 7.225a3.101 3.101 0 0 1-3.093-3.105 3.09 3.09 0 0 1 3.093-3.093c1.707 0 3.099 1.392 3.099 3.1 0 1.706-1.392 3.098-3.1 3.098ZM54.263 29a4.132 4.132 0 0 0-4.126 4.126 4.125 4.125 0 1 0 8.252.006A4.133 4.133 0 0 0 54.263 29Zm0 7.231a3.105 3.105 0 0 1-3.1-3.099c0-1.707 1.393-3.099 3.1-3.099s3.099 1.392 3.099 3.1c0 1.706-1.392 3.098-3.1 3.098ZM57.351 38.808h-7.364c-1.07 0-2.015.642-2.4 1.638l-2.62 6.696-2.62-6.69a2.569 2.569 0 0 0-2.407-1.638h-2.33l-1.934 3.49-1.934-3.49h-1.16A2.586 2.586 0 0 0 30 41.397V51.72h2.066V61h7.225V43.375l3.263 8.334h4.838l3.263-8.334V61h7.225v-9.291h2.066V41.384a2.604 2.604 0 0 0-2.595-2.576ZM43.254 50.669v.007l-3.005-7.68a1.02 1.02 0 0 0-1.153-.635c-.498.094-.838.51-.838 1.014v16.592h-2.066v-7.742H35.16v7.742h-2.066v-9.291h-2.06v-9.292c0-.856.693-1.55 1.55-1.55h.554l2.545 4.586 2.545-4.585h1.726c.642 0 1.21.384 1.442.982l3.855 9.852h-1.996Zm15.647.007h-2.066v9.291h-2.066v-7.742h-1.033v7.742h-2.067V43.375c0-.504-.346-.92-.837-1.014a1.02 1.02 0 0 0-1.153.636l-3.005 7.679h-.321l-.832-2.123 3.024-7.736c.233-.598.8-.982 1.442-.982h7.364c.857 0 1.55.693 1.55 1.55v9.29Z" fill="#000"/><path d="M54.78 40.874h-1.034v1.033h1.033v-1.033ZM54.78 42.934h-1.034v1.033h1.033v-1.033ZM54.78 45h-1.034v1.033h1.033V45Z" fill="#000"/></svg>
